assets/icons/B-2.svg

<svg viewBox="0 0 105.82 105.82" xmlns="http://www.w3.org/2000/svg"><circle cx="52.91" cy="52.91" fill="#1b70be" r="52.91"/><g fill="#fff"><path d="m52.91 97.27a44.36 44.36 0 1 1 44.36-44.36 44.41 44.41 0 0 1 -44.36 44.36zm0-85.72a41.36 41.36 0 1 0 41.36 41.36 41.41 41.41 0 0 0 -41.36-41.36z"/><path d="m67.42 61.64a8.19 8.19 0 0 1 -1.57 5.09 9.75 9.75 0 0 1 -4.24 3.12 15.48 15.48 0 0 1 -5.81 1.07h-17.4v-36h19.28a7.27 7.27 0 0 1 4.39 1.35 8.85 8.85 0 0 1 2.84 3.45 10.17 10.17 0 0 1 1 4.39 9.87 9.87 0 0 1 -1.33 4.89 8.07 8.07 0 0 1 -3.86 3.45 9.13 9.13 0 0 1 4.9 3.29 9.49 9.49 0 0 1 1.8 5.9zm-22-20.75v9.11h9.34a4.17 4.17 0 0 0 3.68-2.13 4.92 4.92 0 0 0 .56-2.47 5.12 5.12 0 0 0 -.53-2.4 4 4 0 0 0 -1.42-1.57 3.73 3.73 0 0 0 -2-.56zm15 19.43a5.31 5.31 0 0 0 -.56-2.46 4.52 4.52 0 0 0 -1.5-1.73 3.75 3.75 0 0 0 -2.15-.63h-10.81v9.5h10.4a4.36 4.36 0 0 0 2.31-.63 4.72 4.72 0 0 0 1.65-1.7 4.58 4.58 0 0 0 .61-2.35z"/></g></svg>

<svg id="Layer_1" data-name="Layer 1" xmlns="http://www.w3.org/2000/svg" viewBox="0 0 105.82 105.82"><defs><style>.cls-1{fill:#1b70be;}.cls-2{fill:#fff;}</style></defs><circle class="cls-1" cx="52.91" cy="52.91" r="52.91"/><path class="cls-2" d="M52.91,97.27A44.36,44.36,0,1,1,97.27,52.91,44.41,44.41,0,0,1,52.91,97.27Zm0-85.72A41.36,41.36,0,1,0,94.27,52.91,41.41,41.41,0,0,0,52.91,11.55Z"/><path class="cls-2" d="M67.42,61.64a8.19,8.19,0,0,1-1.57,5.09,9.75,9.75,0,0,1-4.24,3.12,15.48,15.48,0,0,1-5.81,1.07H38.4v-36H57.68a7.27,7.27,0,0,1,4.39,1.35,8.85,8.85,0,0,1,2.84,3.45,10.17,10.17,0,0,1,1,4.39A9.87,9.87,0,0,1,64.58,49a8.07,8.07,0,0,1-3.86,3.45,9.13,9.13,0,0,1,4.9,3.29A9.49,9.49,0,0,1,67.42,61.64Zm-22-20.75V50h9.34a4.17,4.17,0,0,0,3.68-2.13A4.92,4.92,0,0,0,59,45.4,5.12,5.12,0,0,0,58.47,43a4,4,0,0,0-1.42-1.57,3.73,3.73,0,0,0-2-.56Zm15,19.43a5.31,5.31,0,0,0-.56-2.46,4.52,4.52,0,0,0-1.5-1.73,3.75,3.75,0,0,0-2.15-.63H45.4V65H55.8a4.36,4.36,0,0,0,2.31-.63,4.72,4.72,0,0,0,1.65-1.7A4.58,4.58,0,0,0,60.37,60.32Z"/></svg>
